!!!COM: Bach, Johann Sebastian
!!!OPR: Joh. Seb. Bachs vierstimmige Choralgesänge
!!!XEN: Four-part Chorales
!!!OTL: Chorale 131. Nicht so traurig, nicht so sehr
!!!SCT: BWV 384
!!!SCA: Thematisch-systematisches Verzeichnis der musikalischen Werke Johann Sebastian Bach: Bach-Werke-Verzeichnis (Schmieder)
!!!YOR: Bach Gesellschaft Edition xxxix
!!!ENC: Steven Rasmussen
!!!CDT: 1685/3//-1750/7/28/
!!!OCY: Deutschland
!!!YEC: Copyright (c) 1994, 2000 Center for Computer Assisted Research in the Humanities
!!!YEM: Rights to all derivative editions reserved
!!!YEN: United States of America
**kern	**kern	**kern	**kern	**silbe
*I"[BASSO]	*I"[TENORE]	*I"[ALTO]	*I"[SOPRANO]	*I"[SOPRANO]
*>[A,A,B]	*>[A,A,B]	*>[A,A,B]	*>[A,A,B]	*
*>A	*>A	*>A	*>A	*
*clefF4	*clefGv2	*clefG2	*clefG2	*
*k[b-e-a-]	*k[b-e-a-]	*k[b-e-a-]	*k[b-e-a-]	*
*c:	*c:	*c:	*c:	*
*M4/4	*M4/4	*M4/4	*M4/4	*
4C	4c	4g	4ee-	Nichtdass
4D	4Bn	4f	8ddL	sodir
.	.	.	8ccJ	.
=1	=1	=1	=1	=1
4E-	4c	8e-L	4gg	trau-Gott
.	.	8fJ	.	.
4C	4c	4g	8ffL	-rig,Glück,
.	.	.	8ee-J	.
4F	4c	4a-	4dd	nichtGut
8GL	8BnL	8gL	8ee-L	sound
8A-J	8cJ	8fJ	8ffJ	.
=2	=2	=2	=2	=2
2G;	2d;	2g;	2bn;	sehr,Ehr'
8E-L	4c	4g	8ccL	mei-nicht
8DJ	.	.	8ddJ	.
4C	4c	4g	4ee-	-neso
=3	=3	=3	=3	=3
4F	8cL	4f	4a-	See-viel,
.	8dJ	.	.	.
8GL	4e-	4B-	4g	-le,wie
8A-J	.	.	.	.
4B-	4e-	4B-	4f	seiAn-
4BB-	4d	4f	4b-	be--dern
=4	=4	=4	=4	=4
2E-;	2B-;	2e-;	2g;	-trübt,gibt;
=:|!	=:|!	=:|!	=:|!	=:|!
*>B	*>B	*>B	*>B	*
4E-	4B-	4e-	4gg	nimm
4G	4B-	4e-	4b-	für-
=5	=5	=5	=5	=5
8FL	4c	4f	4an	-lieb
8E-J	.	.	.	.
4D	4B-	4f	4b-	mit
4C	4B-	4g	4ee-	dei-
4F	4An	4f	8ddL	-nem
.	.	.	8ccJ	.
=6	=6	=6	=6	=6
2BB-;	2B-;	2f;	2dd;	Gott;
4B-	4B-	4f	4dd	hast
4A-	4c	4f	8ee-L	du
.	.	.	8ffJ	.
=7	=7	=7	=7	=7
8GL	4d	4g	4bn	Gott,
8FJ	.	.	.	.
8E-L	4c	4g	4gg	so
8FJ	.	.	.	.
4G	4.c	4g	4ee-	hat's
4GG	.	8.fL	8.ddL	nicht
.	8Bn	.	.	.
.	.	16e-Jk	16ccJk	.
=8	=8	=8	=8	=8
2C;	2G;	2e-;	2cc;	Not.
==|!	==|!	==|!	==|!	==|!
*-	*-	*-	*-	*-
!!!RWG: Key is interpreted using the Humdrum key tool.
!!!URL-pdf: https://s9.imslp.org/files/imglnks/usimg/6/6b/IMSLP24489-PMLP09471-CCARH_Bach_Chorales.pdf#page=93 Musedata edition
!!!URL-pdf: https://s9.imslp.org/files/imglnks/usimg/7/7a/IMSLP04155-Bach_-_BGA_253-438.pdf#page=73 	Bach-Gesellschaft Ausgabe, Band 39 (pp.175-276) Leipzig: Breitkopf und Härtel, 1892. Plate B.W. XXXIX.
!!!END: 1994/07/19
!!!EMD: Converted from MuseData to Humdrum Dec 19, 2000, by Andreas Kornstaedt using muse2kern.
!!!EED: Craig Stuart Sapp
!!!EEV: 2024/03/31
!!!filter-keyboard: extract -i kern | satb2gs
!!!title: @{OTL} (@{SCT})
